src/lib/packages/icons/src/assets/line/chat.svg

<svg width="24" height="24" viewBox="0 0 24 24" fill="none" xmlns="http://www.w3.org/2000/svg">
<path d="M4.0049 21.749C3.5479 21.749 3.10408 21.569 2.76809 21.233C2.29408 20.76 2.13108 20.073 2.34108 19.441L3.1819 16.94C3.2799 16.633 3.27102 16.325 3.15602 16.082C2.56402 14.809 2.25392 13.399 2.25392 11.999C2.25392 6.62402 6.62697 2.25 12.002 2.25C17.378 2.25 21.751 6.62302 21.751 11.999C21.751 17.375 17.378 21.748 12.002 21.748C10.603 21.748 9.19302 21.437 7.92702 20.848C7.67802 20.729 7.36902 20.721 7.05202 20.822L4.56301 21.658C4.37801 21.719 4.1899 21.749 4.0049 21.749ZM12.001 3.75C7.453 3.75 3.75295 7.45002 3.75295 11.999C3.75295 13.182 4.01596 14.373 4.51296 15.443C4.78896 16.024 4.82493 16.723 4.60793 17.406L3.76393 19.917C3.72193 20.042 3.7859 20.131 3.8279 20.173C3.8699 20.215 3.95998 20.279 4.08498 20.237L6.58303 19.398C7.27703 19.177 7.97796 19.211 8.56496 19.492C9.62696 19.986 10.818 20.249 12.001 20.249C16.55 20.249 20.25 16.549 20.25 12C20.25 7.451 16.55 3.75 12.001 3.75Z" fill="currentColor"/>
</svg>

<svg xmlns="http://www.w3.org/2000/svg" width="24" height="24" fill="none"><path fill="currentColor" d="M4.005 21.749c-.457 0-.9-.18-1.237-.516a1.743 1.743 0 0 1-.427-1.792l.84-2.501c.099-.307.09-.615-.025-.858a9.74 9.74 0 0 1-.902-4.083c0-5.375 4.373-9.749 9.748-9.749 5.376 0 9.749 4.373 9.749 9.749s-4.373 9.749-9.749 9.749a9.727 9.727 0 0 1-4.075-.9c-.249-.119-.558-.127-.875-.026l-2.489.836a1.781 1.781 0 0 1-.558.091ZM12 3.75c-4.548 0-8.248 3.7-8.248 8.249a8.23 8.23 0 0 0 .76 3.444c.276.581.312 1.28.095 1.963l-.844 2.511a.242.242 0 0 0 .064.256.244.244 0 0 0 .257.064l2.498-.839c.694-.221 1.395-.187 1.982.094a8.21 8.21 0 0 0 3.436.757c4.549 0 8.249-3.7 8.249-8.249S16.549 3.75 12 3.75Z"/></svg>
